X:33
%%NRChange 2018-02-05
T:Josefins dopvals
T:Josefin's baptism waltz
O:Sweden
M:3/4
L:1/4
C:Roger Tallroth
N:Josefin is Roger's niece.
D:V\"asen, "Spirit"
D:Dervish, "At the End of the Day"
R:Waltz
Z:adapted from transcript by John Chambers <jc@trillian.mit.edu>
K:G
P:A (first time only)
|:"Em"EGA | Bdc | "G/B"B>AG | D2E |
"C"C>CC |1,3 "C"EGF | "Am"E3 | D3 \
:|2,4 "C"DFG | "Dsus"A3- | ABc :|
%%sep
P:A
|:"G"DGA | Bdc | B>AG | D2E |
"C"C>CC |1,3 EGF | "Am"E3 | "D"D3 \
:|2,4 "C"DFG | "D"A3- | "(D7)"ABc :|
P:B
|: "G"dBd | g2f | "C"e3 | "G/B"d3 |"Am"ced | cBA | "Em"B>cB | "D"ABc |
"G"dBd | g2f |"C"e3 | "G/B"d3 | "Am"ced | cBA | "Em"B>cB | "D"ABc |
 "Em"BAG | "D"F2G | "C"G3 | CDC | "G"B,DG | "D"FEF |1 "G"G3- | GBc :|2 "G"G3-|G3:|

